Sources/FrostedUI/Resources/Icons.xcassets/profile24.imageset/profile-24.svg

<svg width="24" height="24" viewBox="0 0 24 24" fill="none" xmlns="http://www.w3.org/2000/svg" data-fui-icon="true">
  <path
    d="M12.0007 12.5C15.7223 12.5 18.5649 14.7257 19.7214 17.8525C20.0279 18.681 19.8198 19.4954 19.3308 20.0781C18.8523 20.6483 18.1092 20.9999 17.3044 21H6.698C5.89302 20.9999 5.14923 20.6485 4.67065 20.0781C4.18177 19.4954 3.97366 18.681 4.28003 17.8525C5.43653 14.7257 8.27929 12.5001 12.0007 12.5ZM12.0007 14C8.94039 14.0001 6.63779 15.8031 5.68726 18.373C5.58494 18.6498 5.64436 18.9048 5.82007 19.1143C6.00621 19.3359 6.32484 19.4999 6.698 19.5H17.3044C17.6777 19.4999 17.9963 19.3359 18.1824 19.1143C18.3581 18.9048 18.4175 18.6498 18.3152 18.373C17.3646 15.8029 15.0613 14 12.0007 14ZM12.0007 2C14.486 2.00001 16.5007 4.01473 16.5007 6.5C16.5007 8.98527 14.486 11 12.0007 11C9.51568 10.9998 7.50073 8.98513 7.50073 6.5C7.50073 4.01487 9.51568 2.00025 12.0007 2ZM12.0007 3.5C10.3441 3.50025 9.00073 4.84329 9.00073 6.5C9.00073 8.15671 10.3441 9.49975 12.0007 9.5C13.6576 9.49999 15.0007 8.15685 15.0007 6.5C15.0007 4.84315 13.6576 3.50001 12.0007 3.5Z"
    fill="currentColor"
  />
</svg>

<svg xmlns="http://www.w3.org/2000/svg" width="24" height="24" fill="none" data-fui-icon="true" viewBox="0 0 24 24"><path fill="currentColor" d="M12 12.5c3.722 0 6.565 2.226 7.721 5.352a2.21 2.21 0 0 1-.39 2.226 2.65 2.65 0 0 1-2.027.922H6.698a2.65 2.65 0 0 1-2.027-.922 2.21 2.21 0 0 1-.391-2.226c1.157-3.126 4-5.352 7.72-5.352m0 1.5c-3.06 0-5.362 1.803-6.313 4.373a.72.72 0 0 0 .133.741c.186.222.505.386.878.386h10.606c.374 0 .692-.164.878-.386a.72.72 0 0 0 .133-.741c-.95-2.57-3.254-4.373-6.314-4.373m0-12a4.5 4.5 0 1 1 0 9 4.5 4.5 0 0 1 0-9m0 1.5a3 3 0 1 0 .002 6 3 3 0 0 0-.001-6"/></svg>
